packages/tokens/icons/generateReportGraph/size32Px.svg

<svg viewBox="0 0 32 32" fill="none" xmlns="http://www.w3.org/2000/svg" width="1em" height="1em"><path d="M20.5 3.98077V6.5C20.5 7.60457 21.3954 8.5 22.5 8.5H25M25.5 10.5V9.32843C25.5 8.79799 25.2893 8.28929 24.9142 7.91421L21.0858 4.08579C20.7107 3.71071 20.202 3.5 19.6716 3.5L8.5 3.5C7.39543 3.5 6.5 4.39543 6.5 5.5C6.5 12.5 6.5 19.5 6.5 26.5C6.5 27.6046 7.39543 28.5 8.5 28.5H23.5C24.6046 28.5 25.5 27.6046 25.5 26.5V25.5" stroke="currentColor" stroke-linecap="round"/><circle cx="25" cy="18" r="4.5" stroke="currentColor"/><path d="M25 16.3333L25 19.6666M26.6667 17.9999L23.3333 17.9999" stroke="currentColor" stroke-linecap="round"/><path d="M9.5 8.5L9.5 25.5" stroke="currentColor" stroke-linecap="round"/><rect x="20.5" y="10.5" width="3" height="11" rx="0.5" transform="rotate(90 20.5 10.5)" stroke="currentColor"/><rect x="17.5" y="20.5" width="3" height="8" rx="0.5" transform="rotate(90 17.5 20.5)" stroke="currentColor"/><rect x="16.5" y="15.5" width="3" height="7" rx="0.5" transform="rotate(90 16.5 15.5)" stroke="currentColor"/></svg>

<svg xmlns="http://www.w3.org/2000/svg" fill="none" viewBox="0 0 32 32" width="1em" height="1em"><path stroke="currentColor" stroke-linecap="round" d="M20.5 3.98V6.5a2 2 0 0 0 2 2H25m.5 2V9.328a2 2 0 0 0-.586-1.414l-3.828-3.828a2 2 0 0 0-1.414-.586H8.5a2 2 0 0 0-2 2v21a2 2 0 0 0 2 2h15a2 2 0 0 0 2-2v-1"/><circle cx="25" cy="18" r="4.5" stroke="currentColor"/><path stroke="currentColor" stroke-linecap="round" d="M25 16.333v3.334M26.667 18h-3.334M9.5 8.5v17"/><rect width="3" height="11" x="20.5" y="10.5" stroke="currentColor" rx=".5" transform="rotate(90 20.5 10.5)"/><rect width="3" height="8" x="17.5" y="20.5" stroke="currentColor" rx=".5" transform="rotate(90 17.5 20.5)"/><rect width="3" height="7" x="16.5" y="15.5" stroke="currentColor" rx=".5" transform="rotate(90 16.5 15.5)"/></svg>
